source/images/projects/spritzr.svg

<?xml version="1.0" encoding="UTF-8" standalone="no"?>
<svg width="90px" height="90px" viewBox="0 0 90 90" version="1.1" xmlns="http://www.w3.org/2000/svg" xmlns:xlink="http://www.w3.org/1999/xlink" xmlns:sketch="http://www.bohemiancoding.com/sketch/ns">
    <!-- Generator: Sketch 3.3.3 (12081) - http://www.bohemiancoding.com/sketch -->
    <title>spritzr</title>
    <desc>Created with Sketch.</desc>
    <defs></defs>
    <g id="Page-1" stroke="none" stroke-width="1" fill="none" fill-rule="evenodd" sketch:type="MSPage">
        <circle id="Oval-1" stroke="#4F5B66" fill="#EFF1F5" sketch:type="MSShapeGroup" cx="45" cy="45" r="44"></circle>
        <path d="M43.9919643,54.7776786 L53.7741071,54.7776786 C54.5401824,54.7776786 55.1049089,54.9397305 55.4683036,55.2638393 C55.8316982,55.587948 56.0133929,56.1035679 56.0133929,56.8107143 C56.0133929,57.6160755 55.8415196,58.1709806 55.4977679,58.4754464 C55.1540161,58.7799122 54.5205403,58.9321429 53.5973214,58.9321429 L34.3276786,58.9321429 C33.5616033,58.9321429 32.9821448,58.7553589 32.5892857,58.4017857 C32.1964266,58.0482125 32,57.5178607 32,56.8107143 C32,56.1232108 32.2013373,55.6125017 32.6040179,55.2785714 C33.0066984,54.9446412 33.6303529,54.7776786 34.475,54.7776786 L39.6017857,54.7776786 L39.6017857,35.8910714 L37.5982143,35.8910714 C35.6928476,35.8910714 34.5044666,35.7388408 34.0330357,35.434375 C33.5616048,35.1299092 33.3258929,34.575004 33.3258929,33.7696429 C33.3258929,33.0821394 33.5174088,32.5665196 33.9004464,32.2227679 C34.2834841,31.8790161 34.8678532,31.7071429 35.6535714,31.7071429 L42.3714286,31.7071429 C42.9017884,31.7071429 43.3044629,31.8102668 43.5794643,32.0165179 C43.8544657,32.2227689 43.9919643,32.5223195 43.9919643,32.9151786 L43.9919643,37.9241071 C45.858045,35.5865955 47.8026685,33.84822 49.8258929,32.7089286 C51.8491173,31.5696372 54.0294526,31 56.3669643,31 C58.1151873,31 59.5294589,31.3535679 60.6098214,32.0607143 C61.690184,32.7678607 62.2303571,33.6812444 62.2303571,34.8008929 C62.2303571,35.5276822 61.9602706,36.1709793 61.4200893,36.7308036 C60.879908,37.2906278 60.2857175,37.5705357 59.6375,37.5705357 C59.185712,37.5705357 58.4245589,37.2709851 57.3540179,36.671875 C56.2834768,36.0727649 55.3258971,35.7732143 54.48125,35.7732143 C52.9490995,35.7732143 51.3334906,36.3182981 49.634375,37.4084821 C47.9352594,38.4986662 46.0544746,40.2223096 43.9919643,42.5794643 L43.9919643,54.7776786 Z" id="r" fill="#BF616A" sketch:type="MSShapeGroup"></path>
        <rect id="bottom" fill="#4F5B66" sketch:type="MSShapeGroup" x="43" y="72" width="4" height="17"></rect>
        <rect id="top" fill="#4F5B66" sketch:type="MSShapeGroup" x="43" y="1" width="4" height="17"></rect>
    </g>
</svg>

<svg width="90" height="90" viewBox="0 0 90 90" xmlns="http://www.w3.org/2000/svg"><title>spritzr</title><g fill="none" fill-rule="evenodd"><circle stroke="#4F5B66" fill="#EFF1F5" cx="45" cy="45" r="44"/><path d="M44 54.78h9.77c.77 0 1.33.16 1.7.48.36.33.54.84.54 1.55 0 .82-.16 1.37-.5 1.68-.35.3-.98.45-1.9.45H34.33c-.77 0-1.35-.17-1.74-.53-.4-.35-.6-.88-.6-1.6 0-.68.2-1.2.6-1.52.4-.34 1.03-.5 1.88-.5h5.12v-18.9h-2c-1.9 0-3.1-.14-3.57-.45-.47-.3-.7-.85-.7-1.66 0-.7.2-1.2.57-1.55.38-.34.97-.5 1.75-.5h6.72c.53 0 .93.1 1.2.3.28.2.42.5.42.9v5c1.86-2.33 3.8-4.07 5.83-5.2 2.02-1.15 4.2-1.72 6.54-1.72 1.75 0 3.16.35 4.24 1.06 1.1.7 1.63 1.62 1.63 2.74 0 .73-.27 1.37-.8 1.93-.55.56-1.14.84-1.8.84-.44 0-1.2-.3-2.28-.9-1.07-.6-2.02-.9-2.87-.9-1.53 0-3.15.55-4.85 1.64-1.7 1.1-3.58 2.82-5.64 5.18v12.2z" fill="#BF616A"/><path fill="#4F5B66" d="M43 72h4v17h-4zM43 1h4v17h-4z"/></g></svg>
